X: 21183
T: Katie Mac's
R: waltz
M: 3/4
K: Gmajor
|:C/ D>E|D>G (3GAG D>E|D>G (3GAG D>G|E2 A2 A2|A2- A>^G A>B|
c2- c>B A>G|F2- F>G (3AGF|1 G2 (3EGE C2|D2- D3/2:|2 G2 F>G (3AGF|G2- G3/2||
|:D/ G>A|B2- B>d (3BAG|A2- A>c (3AGF|G2 F>G A>F|G2- G>D G>A|
c2- c>B A>G|F>E F>G A>B|c2- c>B A>G|F>E F>G A>F|
G2 G2 (3Bcd|A2 A2 (3Bcd|B2 B>A B>d|g2 f2 g2|
a2- a>b a>g|f2- f>g a>f|1 g2 d2 B2|G2- G3/2:|2 g2 f>g a>f|g2- g3/2||
|:d/ e>f|g>d (3B^cd A>d|G>d (3B^cd e>d|g>d (3B^cd A>d|G2- G>g f>g|
a>e (3^cde c>e|A>e (3^cde g>e|a>e (3^cde c>e|A2- A>d (3def|
g>d B>d A>d|G>d (3B^cd e>d|g>d (3B^cd A>d|G2- G>g f>g|
a2- a>b a>g|f2 f>g (3agf|1 g2 f>g a>f|g2- g>d:|2 g2 d2 B2|G2- G3/2||

